X:1
T:Title
%%score [ ( 1 2 ) ( 3 4 ) ] { ( 5 6 ) | ( 7 8 ) }
L:1/8
Q:1/4=120
M:4/4
K:G
V:1 treble nm="Midi_74"
V:2 treble 
V:3 bass nm="Midi_74"
V:4 bass 
V:5 treble nm="Org."
V:6 treble 
V:7 bass 
V:8 bass 
V:1
 D8 | E4 (A2 G2) | F8 || B8 | (c2 B2) A4 | d4 G4 |{G} F8 || F8 | G4 (c2 B2) | A8 || A8 | %11
 (B2 A2) G4 |"^William Henry Havergal\n(1793-1870)" c4 F4 | G8 |] %14
V:2
 D8 | C4 E4 | D8 || G8 | G4 F4 | (G2 D2) (D2 ^C2) | D8 || F8 | E4 E4 | F8 || D8 | D4 (E2 D2) | %12
 C4 (D2 C2) | B,8 |] %14
V:3
 G,8 | G,4 A,4 | A,8 || D8 | C4 (D2 A,2) | G,4 G,4 | A,8 || B,8 | B,4 (A,2 G,2) | F,8 || A,8 | %11
 G,4 G,4 | A,4 A,4 | G,8 |] %14
V:4
 B,,8 | C,4 A,,4 | D,8 || G,,8 | A,,4 (D,2 C,2) | B,,4 E,4 | D,8 || ^D,8 | E,4 C,4 | D,8 || F,,8 | %11
 G,,4 (C,2 B,,2) | A,,4 D,4 | G,,8 |] %14
V:5
 D8 | E4 A2 G2 | F8 || B8 | c2 B2 A4 | d4 G4 |{G} F8 || F8 | G4 [Ac]2 [GB]2 | A8 || A8 | B2 A2 G4 | %12
 c4 [A,F]4 | [G,G]8 |] %14
V:6
 D8 | C4 [CE]4 | D8 || [DG]8 | [CG]4 [DF]4 | [DG]4 D2 ^C2 | D8 || [B,F]8 | [B,E]4 E4 | F8 || D8 | %11
 D4 E2 D2 | [CE]4 D2 C2 | B,8 |] %14
V:7
 G,8 | G,4 A,4 | A,8 || x8 | x8 | x4 G,4 | A,8 || x8 | x8 | x8 || x8 | x8 | x8 | x8 |] %14
V:8
 B,,8 | C,4 A,,4 | D,8 || G,,8 | A,,4 D,2 C,2 | B,,4 E,4 | D,8 || ^D,8 | E,4 C,4 | D,8 || F,,8 | %11
 G,,4 C,2 B,,2 | A,,4 D,4 | G,,8 |] %14

